material/.icons/material/folder-search.svg

<svg xmlns="http://www.w3.org/2000/svg" viewBox="0 0 24 24"><path d="M16.5 12c2.5 0 4.5 2 4.5 4.5 0 .88-.25 1.71-.69 2.4l3.08 3.1L22 23.39l-3.12-3.07c-.69.43-1.51.68-2.38.68-2.5 0-4.5-2-4.5-4.5s2-4.5 4.5-4.5m0 2a2.5 2.5 0 00-2.5 2.5 2.5 2.5 0 002.5 2.5 2.5 2.5 0 002.5-2.5 2.5 2.5 0 00-2.5-2.5M9 4l2 2h8a2 2 0 012 2v3.81A6.48 6.48 0 0016.5 10a6.5 6.5 0 00-6.5 6.5c0 1.29.37 2.5 1 3.5H3a2 2 0 01-2-2V6c0-1.11.89-2 2-2h6z"/></svg>

<?xml version="1.0" encoding="UTF-8"?><!DOCTYPE svg PUBLIC "-//W3C//DTD SVG 1.1//EN" "http://www.w3.org/Graphics/SVG/1.1/DTD/svg11.dtd"><svg xmlns="http://www.w3.org/2000/svg" xmlns:xlink="http://www.w3.org/1999/xlink" version="1.1" id="mdi-folder-search" width="24" height="24" viewBox="0 0 24 24"><path d="M16.5,12C19,12 21,14 21,16.5C21,17.38 20.75,18.21 20.31,18.9L23.39,22L22,23.39L18.88,20.32C18.19,20.75 17.37,21 16.5,21C14,21 12,19 12,16.5C12,14 14,12 16.5,12M16.5,14A2.5,2.5 0 0,0 14,16.5A2.5,2.5 0 0,0 16.5,19A2.5,2.5 0 0,0 19,16.5A2.5,2.5 0 0,0 16.5,14M9,4L11,6H19A2,2 0 0,1 21,8V11.81C19.83,10.69 18.25,10 16.5,10A6.5,6.5 0 0,0 10,16.5C10,17.79 10.37,19 11,20H3C1.89,20 1,19.1 1,18V6C1,4.89 1.89,4 3,4H9Z" /></svg>
